svgs/thin/ampersand.svg

<svg xmlns="http://www.w3.org/2000/svg" viewBox="0 0 384 512"><!-- Font Awesome Pro 6.0.0-alpha2 by @fontawesome - https://fontawesome.com License - https://fontawesome.com/license (Commercial License) --><path d="M381.809 466.484L302.685 383.188L382.559 268.578C385.091 264.953 384.184 259.969 380.559 257.438C376.997 254.938 371.997 255.781 369.434 259.422L291.435 371.344L158.311 231.172L234.154 170.594C253.123 155.719 263.998 133.594 263.998 109.906C263.998 66.953 228.061 32 183.905 32H136.093C91.937 32 56 66.953 56 109.906C56 133.5 65.031 156.062 81.437 173.469L134.718 229.562L37.156 307.516C13.531 326.016 0 353.531 0 383.031C0 436.5 44.75 480 99.749 480H169.311C210.373 480 248.717 460.344 271.904 427.375L293.341 396.594L370.184 477.516C371.778 479.172 373.872 480 375.997 480C377.966 480 379.966 479.266 381.497 477.797C384.716 474.766 384.841 469.688 381.809 466.484ZM93.062 162.469C79.468 148.062 71.999 129.406 71.999 109.906C71.999 75.766 100.749 48 136.093 48H183.905C219.248 48 247.998 75.766 247.998 109.906C247.998 128.656 239.342 146.188 224.217 158.047L147.28 219.531L93.062 162.469ZM258.81 418.188C238.623 446.875 205.155 464 169.311 464H99.749C53.562 464 16 427.672 16 383.031C16 358.484 27.312 335.563 47.093 320.063L145.78 241.203L282.091 384.75L258.81 418.188Z"/></svg>

<svg xmlns="http://www.w3.org/2000/svg" viewBox="0 0 384 512"><!--! Font Awesome Pro 6.3.0 by @fontawesome - https://fontawesome.com License - https://fontawesome.com/license (Commercial License) Copyright 2023 Fonticons, Inc. --><path d="M381.8 466.5l-79.12-83.3l79.87-114.6c2.531-3.625 1.625-8.609-2-11.14c-3.562-2.5-8.562-1.656-11.12 1.984l-77.1 111.9L158.3 231.2l75.84-60.58c18.97-14.88 29.84-37 29.84-60.69C263.1 66.95 228.1 32 183.9 32H136.1C91.94 32 55.1 66.95 55.1 109.9c0 23.59 9.031 46.16 25.44 63.56l53.28 56.09L37.16 307.5c-23.62 18.5-37.16 46.02-37.16 75.52C.0002 436.5 44.75 480 99.75 480h69.56c41.06 0 79.41-19.66 102.6-52.63l21.44-30.78l76.84 80.92C371.8 479.2 373.9 480 375.1 480c1.969 0 3.969-.7344 5.5-2.203C384.7 474.8 384.8 469.7 381.8 466.5zM93.06 162.5C79.47 148.1 71.1 129.4 71.1 109.9C71.1 75.77 100.7 48 136.1 48h47.81c35.34 0 64.09 27.77 64.09 61.91c0 18.75-8.656 36.28-23.78 48.14L147.3 219.5L93.06 162.5zM258.8 418.2C238.6 446.9 205.2 464 169.3 464h-69.56c-46.19 0-83.75-36.33-83.75-80.97c0-24.55 11.31-47.47 31.09-62.97l98.69-78.86l136.3 143.5L258.8 418.2z"/></svg>
